X:1
T:Title
%%score { ( 1 2 ) | ( 3 4 ) }
L:1/8
M:6/8
K:Db
V:1 treble nm="Grand Piano"
V:2 treble 
V:3 bass 
V:4 bass 
V:1
 z3 z z[Q:1/4=81] z/ E/ | F2 F B2 F | [FA]2 [_F=G] [E_G]2 [CE]/[D=F]/ | [EG]2 [EG] [Gc]2 [GB] | %4
[M:5/8] [FB]2 [FA] [FA]2 |[M:1/8] [DF]/[EG]/ |[M:3/4] [FA]2 [FA] [Fd]2 [DAc] | %7
 [DAc]2 [DGB] [DGB]2 [DGB] | [D=GB]<[DGB] [DGB] [Ge]2 [Gf] |[M:5/8] e-e- e3 |[M:1/8] A | %11
[M:3/4] [Fd]>[Fc] [FB] [FA]2 [Fd] | c6 | [Ge]>[Gd] [Gc] [GB]2 [Gc] |[M:5/8] F2 z z2 |[M:1/8] D | %16
[M:3/4] FF FG GG |[M:15/16] AA/-A/d d3 d3/2 |[M:3/4] d<A d e2 c |[M:5/8] d2- [Gd-] [Fd]2 |] %20
V:2
 z3 z2 D | x6 | x6 | x6 |[M:5/8] x5 |[M:1/8] x |[M:3/4] x6 | x6 | x6 |[M:5/8] x5 |[M:1/8] x | %11
[M:3/4] x6 | z2 C E2 A | x6 |[M:5/8] A2- [CA-] [DA]2 |[M:1/8] x |[M:3/4] x6 |[M:15/16] x15/2 | %18
[M:3/4] x6 |[M:5/8] [DF]2 z z2 |] %20
V:3
 z3 z2 F,/G,/ | [D,A,D]2 [D,A,D] [D,F,D]2 [D,A,D] | [A,,A,]2 [A,,A,] [A,,A,]2 [A,,A,] | %3
 [A,,A,]2 [A,,A,] [A,,A,]2 [A,,A,] |[M:5/8] [D,A,]2 [D,A,] [D,A,]2 |[M:1/8] [D,A,] | %6
[M:3/4] [D,D]2 [D,D] [D,A,]2 F, | G,2 G, G,2 G,/F,/ | E,<E, E, [E,D]2 [E,D] | %9
[M:5/8][K:treble] [A,CA]-[A,CA]- [A,CA]3 |[M:1/8] [A,G] | %11
[M:3/4][K:bass] [D,A,]>[D,B,] [D,C] [D,D]2 [D,A,] | [A,G]4- [A,G][A,G] | %13
 [A,,A,]>[A,,A,] [A,,A,] [A,,A,]2 [A,,A,] |[M:5/8] [D,A,]2 [E,G,] [F,A,]2 |[M:1/8] [D,F,] | %16
[M:3/4] [D,A,D][D,A,D] [D,A,D][E,A,C] [E,A,C][E,A,C] | %17
[M:15/16] [F,A,D][F,A,D]/-[F,A,D]/[F,A,D] [G,B,D]3[K:treble] [=G,B,_F]3/2 | %18
[M:3/4] [A,F]<[A,DF] [A,DF] [A,CG]2 [A,EG] |[M:5/8][K:bass] z2 B, A,2 |] %20
V:4
 z3 z2 D, | x6 | x6 | x6 |[M:5/8] x5 |[M:1/8] x |[M:3/4] x6 | x6 | x6 |[M:5/8][K:treble] x5 | %10
[M:1/8] x |[M:3/4][K:bass] x6 | x6 | x6 |[M:5/8] x5 |[M:1/8] x |[M:3/4] x6 | %17
[M:15/16] x6[K:treble] x3/2 |[M:3/4] x6 |[M:5/8][K:bass] D,-D,- D,3 |] %20

